icons/svg/playstation.svg

﻿<?xml version="1.0" encoding="utf-8"?>
<!DOCTYPE svg PUBLIC "-//W3C//DTD SVG 1.1//EN" "http://www.w3.org/Graphics/SVG/1.1/DTD/svg11.dtd">
<svg xmlns="http://www.w3.org/2000/svg" xmlns:xlink="http://www.w3.org/1999/xlink" version="1.1" baseProfile="full" width="24" height="24" viewBox="0 0 24.00 24.00" enable-background="new 0 0 24.00 24.00" xml:space="preserve">
	<path fill="#000000" fill-opacity="1" stroke-linejoin="round" d="M 9.49194,4.27096C 10.878,4.52778 12.9005,5.13704 13.9864,5.50293C 16.7508,6.45204 17.6874,7.6314 17.6874,10.291C 17.6874,12.886 16.0859,13.8675 14.053,12.886L 14.053,8.05463C 14.053,7.4885 13.949,6.96609 13.4148,6.81828C 13.0097,6.68753 12.7554,7.06556 12.7554,7.6314L 12.7554,19.729L 9.49194,18.6941L 9.49194,4.27096 Z M 13.3744,17.62L 18.6233,15.7495C 19.2172,15.537 19.309,15.236 18.8266,15.0776C 18.3423,14.9185 17.4657,14.9653 16.8711,15.1785L 13.3744,16.4091L 13.3744,14.4484L 13.5758,14.381C 13.5758,14.381 14.5869,14.0235 16.0078,13.8664C 17.4283,13.7099 19.1683,13.8869 20.5333,14.4044C 22.0734,14.8922 22.247,15.6081 21.8565,16.1022C 21.464,16.5954 20.5059,16.948 20.5059,16.948L 13.3744,19.5087L 13.3744,17.62 Z M 3.50615,17.423C 1.92554,16.9778 1.66176,16.0515 2.38091,15.5178C 3.04852,15.0243 4.17957,14.6517 4.17957,14.6517L 8.85886,12.989L 8.85886,14.8834L 5.49285,16.0891C 4.89643,16.3041 4.80609,16.6046 5.28849,16.7632C 5.77273,16.9217 6.64755,16.8768 7.2436,16.6622L 8.85886,16.0773L 8.85886,17.7735L 8.53603,17.8274C 6.92003,18.0918 5.20075,17.9824 3.50615,17.423 Z "/>
</svg>

<svg xmlns="http://www.w3.org/2000/svg" version="1.1" baseProfile="full" width="24" height="24" viewBox="0 0 24.00 24.00" xml:space="preserve"><path fill="#000" fill-opacity="1" stroke-linejoin="round" d="M9.492 4.27c1.386.258 3.408.867 4.494 1.233 2.765.95 3.7 2.128 3.7 4.788 0 2.596-1.6 3.578-3.633 2.596v-4.83c0-.567-.104-1.09-.638-1.238-.405-.13-.66.248-.66.813v12.1l-3.263-1.036V4.27zm3.882 13.35l5.25-1.87c.593-.213.685-.514.203-.672-.485-.16-1.36-.113-1.956.1l-3.496 1.23v-1.96l.202-.067s1.01-.357 2.432-.514c1.42-.156 3.16.02 4.525.538 1.54.488 1.714 1.204 1.323 1.698-.392.493-1.35.846-1.35.846l-7.132 2.56V17.62zm-9.868-.197c-1.58-.445-1.844-1.37-1.125-1.905.67-.494 1.8-.866 1.8-.866l4.68-1.663v1.893L5.492 16.09c-.597.214-.687.515-.205.673.485.16 1.36.114 1.956-.1l1.615-.586v1.696l-.324.054c-1.616.265-3.335.155-5.03-.404z"/></svg>
